src/pos-icons/message-outline.svg

<svg height="24" viewBox="0 0 24 24" width="24" xmlns="http://www.w3.org/2000/svg"><path d="m20 2h-16a2 2 0 0 0 -2 2v18l4-4h14a2 2 0 0 0 2-2v-12a2 2 0 0 0 -2-2m0 14h-14l-2 2v-14h16"/></svg>

<?xml version="1.0" encoding="UTF-8"?><!DOCTYPE svg PUBLIC "-//W3C//DTD SVG 1.1//EN" "http://www.w3.org/Graphics/SVG/1.1/DTD/svg11.dtd"><svg xmlns="http://www.w3.org/2000/svg" xmlns:xlink="http://www.w3.org/1999/xlink" version="1.1" id="mdi-message-outline" width="24" height="24" viewBox="0 0 24 24"><path d="M20,2H4A2,2 0 0,0 2,4V22L6,18H20A2,2 0 0,0 22,16V4A2,2 0 0,0 20,2M20,16H6L4,18V4H20" /></svg>
